X:255
T:Ah, Surely                                                                                        
M:4/4                                                                                               
L:1/8                                                                                               
K:G                                                                                                 
A3 c BG G2|BGBd g2 fg|eA A2 BGBd|(3efg BG AcBG|                                                     
A^GAc B=G G2|BGBd g2 ga|(#bag bg (3efg fa|gedc BG G2 :|                                             
bg g2 agef|gfge dega|bgdg bgdg|eaag a2 ga|                                                          
bg g2 agef|gfge dega|(3bag af (3efg fa|gedc BG G2 :|
